packages/assets/static/images/icons/escalator-down.svg

<svg width="24" height="24" viewBox="0 0 24 24" xmlns="http://www.w3.org/2000/svg">
<path d="M15.9699 8.03063C15.8291 7.88989 15.7501 7.69902 15.7501 7.5C15.7501 7.30098 15.8291 7.11011 15.9699 6.96937C16.1106 6.82864 16.3015 6.74958 16.5005 6.74958C16.6995 6.74958 16.8904 6.82864 17.0311 6.96937L18.0005 7.93969V4.5C18.0005 4.30109 18.0795 4.11032 18.2202 3.96967C18.3608 3.82902 18.5516 3.75 18.7505 3.75C18.9494 3.75 19.1402 3.82902 19.2808 3.96967C19.4215 4.11032 19.5005 4.30109 19.5005 4.5V7.93969L20.4699 6.96937C20.6106 6.82864 20.8015 6.74958 21.0005 6.74958C21.1995 6.74958 21.3904 6.82864 21.5311 6.96937C21.6718 7.11011 21.7509 7.30098 21.7509 7.5C21.7509 7.69902 21.6718 7.88989 21.5311 8.03063L19.2811 10.2806C19.2115 10.3504 19.1287 10.4057 19.0377 10.4434C18.9466 10.4812 18.8491 10.5006 18.7505 10.5006C18.6519 10.5006 18.5543 10.4812 18.4633 10.4434C18.3722 10.4057 18.2895 10.3504 18.2199 10.2806L15.9699 8.03063ZM22.5005 15V18.75C22.5005 19.1478 22.3425 19.5294 22.0611 19.8107C21.7798 20.092 21.3983 20.25 21.0005 20.25H15.7505C15.6469 20.2501 15.5445 20.2287 15.4496 20.1872C15.3548 20.1458 15.2695 20.0851 15.1992 20.0091L6.42236 10.5H3.00049C2.60266 10.5 2.22113 10.342 1.93983 10.0607C1.65852 9.77936 1.50049 9.39782 1.50049 9V5.25C1.50049 4.85218 1.65852 4.47064 1.93983 4.18934C2.22113 3.90804 2.60266 3.75 3.00049 3.75H8.25049C8.35403 3.74993 8.45646 3.77131 8.55133 3.81277C8.6462 3.85424 8.73146 3.9149 8.80174 3.99094L17.5786 13.5H21.0005C21.3983 13.5 21.7798 13.658 22.0611 13.9393C22.3425 14.2206 22.5005 14.6022 22.5005 15ZM21.0005 15H17.2505C17.1469 15.0001 17.0445 14.9787 16.9496 14.9372C16.8548 14.8958 16.7695 14.8351 16.6992 14.7591L7.92236 5.25H3.00049V9H6.75049C6.85403 8.99993 6.95646 9.02131 7.05133 9.06277C7.1462 9.10424 7.23146 9.1649 7.30174 9.24094L16.0786 18.75H21.0005V15Z"/>
</svg>

<svg viewBox="0 0 24 24" xmlns="http://www.w3.org/2000/svg" aria-hidden="true" fill="currentColor"><path d="M15.97 8.03a.75.75 0 1 1 1.061-1.06l.97.97V4.5a.75.75 0 1 1 1.5 0v3.44l.969-.97a.75.75 0 1 1 1.061 1.06l-2.25 2.25a.75.75 0 0 1-1.061 0zM22.5 15v3.75a1.5 1.5 0 0 1-1.5 1.5h-5.25a.75.75 0 0 1-.55-.24L6.421 10.5H3A1.5 1.5 0 0 1 1.5 9V5.25A1.5 1.5 0 0 1 3 3.75h5.25a.75.75 0 0 1 .552.24l8.777 9.51H21a1.5 1.5 0 0 1 1.5 1.5M21 15h-3.75a.75.75 0 0 1-.55-.24L7.921 5.25H3V9h3.75a.75.75 0 0 1 .552.24l8.777 9.51H21z"/></svg>
